src/assets/images/icon_back.svg

<svg width="16" height="16" viewBox="0 0 16 16" fill="none" xmlns="http://www.w3.org/2000/svg">
<g id="Forward 5">
<g id="surface1041">
<path id="Vector" d="M10.2761 12.6686C10.1946 12.7591 10.088 12.8031 9.9815 12.8031C9.87495 12.8031 9.7684 12.7591 9.68686 12.6686L5.72075 8.32547C5.55767 8.14807 5.55767 7.85758 5.72075 7.68019L9.68686 3.33706C9.84886 3.15848 10.1141 3.15848 10.2761 3.33706C10.4392 3.51445 10.4392 3.80495 10.2761 3.98234L6.60573 8.00283L10.2761 12.0233C10.4392 12.2007 10.4392 12.4912 10.2761 12.6686Z" fill="#29333A" stroke="#0D1011" stroke-width="0.3"/>
</g>
</g>
</svg>

<svg width="16" height="16" fill="none" xmlns="http://www.w3.org/2000/svg"><path d="M10.276 12.669a.394.394 0 0 1-.294.134.394.394 0 0 1-.295-.134L5.72 8.325a.487.487 0 0 1 0-.645l3.966-4.343a.391.391 0 0 1 .59 0 .487.487 0 0 1 0 .645l-3.671 4.02 3.67 4.021a.487.487 0 0 1 0 .646z" fill="#29333A" stroke="#0D1011" stroke-width=".3"/></svg>
